actions/scalable/format-text-strikethrough.svg

<?xml version="1.0" encoding="UTF-8" standalone="no"?>
<!-- Created with Inkscape (http://www.inkscape.org/) -->

<svg
   xmlns:dc="http://purl.org/dc/elements/1.1/"
   xmlns:cc="http://creativecommons.org/ns#"
   xmlns:rdf="http://www.w3.org/1999/02/22-rdf-syntax-ns#"
   xmlns:svg="http://www.w3.org/2000/svg"
   xmlns="http://www.w3.org/2000/svg"
   xmlns:sodipodi="http://sodipodi.sourceforge.net/DTD/sodipodi-0.dtd"
   xmlns:inkscape="http://www.inkscape.org/namespaces/inkscape"
   width="22"
   height="22"
   id="svg2"
   version="1.1"
   inkscape:version="0.48+devel r"
   viewBox="0 0 22 22"
   sodipodi:docname="format-text-strikethrough.svg">
  <defs
     id="defs4" />
  <sodipodi:namedview
     id="base"
     pagecolor="#ffffff"
     bordercolor="#666666"
     borderopacity="1.0"
     inkscape:pageopacity="0.0"
     inkscape:pageshadow="2"
     inkscape:zoom="17.113356"
     inkscape:cx="14.856865"
     inkscape:cy="15.986688"
     inkscape:document-units="px"
     inkscape:current-layer="layer1"
     showgrid="true"
     inkscape:showpageshadow="false"
     units="px"
     inkscape:window-width="1366"
     inkscape:window-height="668"
     inkscape:window-x="-2"
     inkscape:window-y="23"
     inkscape:window-maximized="1"
     showguides="true">
    <inkscape:grid
       type="xygrid"
       id="grid4120" />
    <sodipodi:guide
       position="2,20.000017"
       orientation="18,0"
       id="guide4126" />
    <sodipodi:guide
       position="2,2.0000174"
       orientation="0,18"
       id="guide4128" />
    <sodipodi:guide
       position="20,2.0000174"
       orientation="-18,0"
       id="guide4130" />
    <sodipodi:guide
       position="20,20.000017"
       orientation="0,-18"
       id="guide4132" />
    <sodipodi:guide
       position="3,19.000017"
       orientation="16,0"
       id="guide4134" />
    <sodipodi:guide
       position="3,3.0000174"
       orientation="0,16"
       id="guide4136" />
    <sodipodi:guide
       position="19,3.0000174"
       orientation="-16,0"
       id="guide4138" />
    <sodipodi:guide
       position="19,19.000017"
       orientation="0,-16"
       id="guide4140" />
    <sodipodi:guide
       position="19,13.000017"
       orientation="-6,0"
       id="guide4199" />
    <sodipodi:guide
       position="19,19.000017"
       orientation="0,-6.0000172"
       id="guide4201" />
  </sodipodi:namedview>
  <metadata
     id="metadata7">
    <rdf:RDF>
      <cc:Work
         rdf:about="">
        <dc:format>image/svg+xml</dc:format>
        <dc:type
           rdf:resource="http://purl.org/dc/dcmitype/StillImage" />
        <dc:title></dc:title>
      </cc:Work>
    </rdf:RDF>
  </metadata>
  <g
     inkscape:label="Capa 1"
     inkscape:groupmode="layer"
     id="layer1"
     transform="translate(0,-1030.3622)">
    <path
       style="font-style:normal;font-variant:normal;font-weight:normal;font-stretch:normal;font-size:medium;line-height:125%;font-family:Oxygen;-inkscape-font-specification:Oxygen;letter-spacing:0px;word-spacing:0px;fill:#666666;fill-opacity:1;stroke:none;stroke-width:1px;stroke-linecap:butt;stroke-linejoin:miter;stroke-opacity:1"
       d="M 11.441406 3 C 9.2738481 3 7.2494185 3.5424219 6.0800781 4.1699219 L 6.7363281 5.9941406 C 7.99123 5.3952406 9.8172904 4.96875 11.5 4.96875 C 13.610517 4.96875 14.521484 5.9372156 14.521484 7.7910156 L 14.521484 9.53125 L 12.982422 9.703125 C 12.341618 9.7959935 11.709176 9.8935024 11.087891 10 L 16.832031 10 L 16.832031 7.4199219 C 16.832031 3.9975219 14.464579 3 11.441406 3 z M 5.5214844 13 C 5.2960872 13.51601 5.1679688 14.118186 5.1679688 14.835938 C 5.1679688 17.687938 7.3066024 19 9.8164062 19 C 11.413554 19 13.239614 18.486209 14.580078 16.974609 L 14.921875 18.658203 L 16.832031 18.658203 L 16.832031 13 L 14.521484 13 L 14.521484 14.921875 C 13.523266 16.290875 11.499468 17.173828 10.044922 17.173828 C 8.5903769 17.173828 7.5058594 16.4612 7.5058594 14.75 C 7.5058594 14.006873 7.676582 13.448224 8.0605469 13 L 5.5214844 13 z "
       transform="translate(0,1030.3622)"
       id="path4153" />
    <rect
       style="opacity:1;fill:#666666;fill-opacity:1;stroke:none"
       id="rect4156"
       width="16"
       height="1"
       x="3"
       y="1041.3621" />
  </g>
</svg>

<svg height="22" viewBox="0 0 22 22" width="22" xmlns="http://www.w3.org/2000/svg" xmlns:sodipodi="http://sodipodi.sourceforge.net/DTD/sodipodi-0.dtd" xmlns:inkscape="http://www.inkscape.org/namespaces/inkscape">
 <g transform="matrix(1 0 0 1 0 -1030.4)">
  <path d="m11.441 3c-2.1672 0-4.1916 0.5424-5.3609 1.1699l0.6562 1.8242c1.2549-0.5989 3.081-1.0253 4.7637-1.0253 2.111 0 3.021 0.9684 3.021 2.8222v1.7402l-1.539 0.1719c-0.64 0.0929-1.273 0.1904-1.894 0.2969h5.744v-2.5801c0-3.4224-2.367-4.4199-5.391-4.4199zm-5.9195 10c-0.2254 0.516-0.3535 1.118-0.3535 1.836 0 2.852 2.1386 4.164 4.6484 4.164 1.5976 0 3.4236-0.514 4.7636-2.025l0.342 1.683h1.91v-5.658h-2.311v1.922c-0.998 1.369-3.022 2.252-4.476 2.252-1.4546 0-2.5391-0.713-2.5391-2.424 0-0.743 0.1707-1.302 0.5546-1.75h-2.539z" fill="#4d4d4d" transform="matrix(1 0 0 1 0 1030.4)"/>
  <rect x="3" y="1041.4" fill="#4d4d4d" height="1" width="16"/>
 </g>
</svg>
